X: 161
T: Beef Can Close
M:4/4
R:reel
L:1/8
Z:added by Alf warnock alf0@rogers.com - www.alfwarnock.info/alfs
K:Gdor
c2|"Gm"d2g2 g3a|"F"f2e2 d3c|"Gm"d2g2 g3a|"F"f4 f2g2|
"Dm"a2a2 g2gg|"F"f2e2 d2cc|"Dm"c2A2 f2A2|"F"c4|
%%text Chorus
"Dm"d3c|"Gm"B2G2 G4| "F"ABAG F4| "Gm"B2G2 g2fd|"F"c2A2 "Gm"G4-|G8|]

